img/logo.svg

<svg fill="none" height="78" viewBox="0 0 209 78" width="209" xmlns="http://www.w3.org/2000/svg"><g fill="#103c78"><path d="m206.863 45.0643c.602 0 1.099.1967 1.492.5899.394.3933.59.9023.59 1.5269v21.4451c0 .6014-.196 1.1104-.59 1.5268-.393.3933-.89.5899-1.492.5899-.601 0-1.099-.1966-1.492-.5899-.393-.4164-.59-.9254-.59-1.5268v-1.7004l.764.3123c0 .3008-.162.6709-.486 1.1105-.324.4164-.764.8328-1.319 1.2492s-1.214.775-1.978 1.0757c-.74.2776-1.55.4164-2.429.4164-1.596 0-3.042-.4048-4.337-1.2145-1.296-.8328-2.325-1.9664-3.089-3.4007-.74-1.4574-1.11-3.1231-1.11-4.9969 0-1.897.37-3.5626 1.11-4.9969.764-1.4574 1.782-2.591 3.054-3.4007 1.272-.8328 2.683-1.2492 4.233-1.2492.995 0 1.909.1504 2.742.4511s1.55.6824 2.151 1.1451c.625.4627 1.099.9369 1.423 1.4227.347.4627.521.856.521 1.1799l-1.25.4511v-9.2998c0-.6015.197-1.0989.59-1.4922.393-.4164.891-.6246 1.492-.6246zm-7.009 22.2085c1.018 0 1.908-.2544 2.672-.7634.763-.5089 1.353-1.2029 1.769-2.082.44-.8791.66-1.8623.66-2.9496 0-1.1104-.22-2.1052-.66-2.9843-.416-.8791-1.006-1.5731-1.769-2.082-.764-.509-1.654-.7634-2.672-.7634-.995 0-1.874.2544-2.637.7634-.764.5089-1.365 1.2029-1.805 2.082-.416.8791-.625 1.8739-.625 2.9843 0 1.0873.209 2.0705.625 2.9496.44.8791 1.041 1.5731 1.805 2.082.763.509 1.642.7634 2.637.7634z"/><path d="m180.917 51.8309c1.712 0 3.008.3586 3.887 1.0757.902.7172 1.515 1.6772 1.839 2.8802.347 1.1798.52 2.4984.52 3.9559v8.8834c0 .6015-.196 1.1104-.59 1.5268-.393.3933-.89.5899-1.492.5899-.601 0-1.099-.1966-1.492-.5899-.393-.4164-.59-.9253-.59-1.5268v-8.8834c0-.7634-.104-1.4459-.312-2.0474-.185-.6246-.532-1.122-1.041-1.4921s-1.238-.5552-2.186-.5552c-.926 0-1.712.1851-2.36.5552-.624.3701-1.11.8675-1.457 1.4921-.324.6015-.486 1.284-.486 2.0474v8.8834c0 .6015-.197 1.1104-.59 1.5268-.393.3933-.891.5899-1.492.5899-.602 0-1.099-.1966-1.492-.5899-.394-.4164-.59-.9253-.59-1.5268v-14.3314c0-.6015.196-1.0989.59-1.4922.393-.4164.89-.6246 1.492-.6246.601 0 1.099.2082 1.492.6246.393.3933.59.8907.59 1.4922v1.4921l-.521-.1041c.209-.3933.509-.8097.903-1.2492.393-.4627.856-.8907 1.388-1.284.532-.3932 1.133-.7056 1.804-.9369.671-.2545 1.4-.3817 2.186-.3817z"/><path d="m159.269 71.0898c-1.966 0-3.678-.4048-5.135-1.2145-1.435-.8328-2.545-1.9548-3.332-3.366-.763-1.4111-1.145-3.0074-1.145-4.7887 0-2.082.417-3.8518 1.25-5.3092.856-1.4806 1.966-2.6141 3.331-3.4007 1.365-.7865 2.811-1.1798 4.337-1.1798 1.18 0 2.291.2429 3.332.7287 1.064.4858 2.001 1.1567 2.81 2.0127.81.8328 1.446 1.8044 1.909 2.9148.486 1.1105.729 2.2903.729 3.5395-.023.5552-.243 1.0063-.66 1.3533-.416.347-.902.5206-1.457.5206h-13.256l-1.041-3.4701h12.735l-.763.694v-.9369c-.046-.6709-.289-1.2724-.729-1.8045-.416-.532-.948-.9485-1.596-1.2492-.625-.3239-1.295-.4858-2.013-.4858-.694 0-1.341.0925-1.943.2776-.601.1851-1.122.4974-1.561.9369-.44.4396-.787 1.0295-1.041 1.7698-.255.7402-.382 1.6772-.382 2.8107 0 1.2492.254 2.3134.763 3.1925.532.8559 1.203 1.5153 2.013 1.9779.833.4396 1.712.6593 2.637.6593.856 0 1.539-.0694 2.048-.2082s.913-.3007 1.214-.4858c.324-.2082.613-.3817.868-.5205.416-.2082.809-.3123 1.179-.3123.509 0 .926.1735 1.25.5205.347.347.52.7519.52 1.2146 0 .6246-.324 1.1913-.971 1.7003-.602.5089-1.446.96-2.534 1.3533-1.087.3702-2.209.5552-3.366.5552z"/><path d="m146.245 68.6261c0 .6015-.196 1.1104-.59 1.5268-.393.3933-.89.5899-1.492.5899-.601 0-1.099-.1966-1.492-.5899-.393-.4164-.59-.9253-.59-1.5268v-14.3314c0-.6015.197-1.0989.59-1.4922.393-.4164.891-.6246 1.492-.6246.602 0 1.099.2082 1.492.6246.394.3933.59.8907.59 1.4922zm-2.116-18.7037c-.787 0-1.342-.1273-1.666-.3817-.324-.2545-.486-.7056-.486-1.3534v-.6593c0-.6709.174-1.122.521-1.3533.37-.2545.925-.3817 1.665-.3817.81 0 1.377.1272 1.701.3817.323.2544.485.7056.485 1.3533v.6593c0 .6709-.173 1.1336-.52 1.3881-.347.2313-.914.347-1.7.347z"/><path d="m129.36 70.7428c-.602 0-1.099-.1966-1.492-.5899-.394-.4164-.59-.9253-.59-1.5268v-14.3314c0-.6015.196-1.0989.59-1.4922.393-.4164.89-.6246 1.492-.6246.601 0 1.099.2082 1.492.6246.393.3933.59.8907.59 1.4922v3.2618l-.243-2.3249c.254-.5552.578-1.041.972-1.4575.416-.4395.879-.7981 1.388-1.0757.509-.3007 1.052-.5205 1.631-.6593.578-.1388 1.156-.2082 1.735-.2082.694 0 1.272.1966 1.735.5899.485.3933.728.856.728 1.388 0 .7635-.196 1.3187-.59 1.6657-.393.3239-.821.4858-1.283.4858-.44 0-.845-.081-1.215-.2429-.347-.162-.752-.2429-1.214-.2429-.417 0-.845.1041-1.284.3123-.417.1851-.81.4858-1.18.9022-.347.4164-.636.9369-.868 1.5615-.208.6015-.312 1.3187-.312 2.1515v8.2241c0 .6015-.197 1.1104-.59 1.5268-.393.3933-.891.5899-1.492.5899z"/><path d="m110.631 70.7428c-.648 0-1.18-.1966-1.596-.5899-.394-.4164-.59-.9253-.59-1.5268v-20.0571c0-.6014.196-1.0988.59-1.4921.416-.4164.925-.6246 1.527-.6246h11.277c.602 0 1.099.1966 1.492.5899.417.3701.625.8559.625 1.4574 0 .509-.208.9601-.625 1.3534-.393.3932-.89.5899-1.492.5899h-9.369l.312-.4164v6.9748l-.242-.4511h7.738c.601 0 1.099.1966 1.492.5899.416.3702.625.856.625 1.4575 0 .5089-.209.96-.625 1.3533-.393.3933-.891.5899-1.492.5899h-7.808l.312-.3123v8.3976c0 .6015-.219 1.1104-.659 1.5268-.416.3933-.914.5899-1.492.5899z"/><path d="m136.375 31.2376c-.602 0-1.099-.1967-1.493-.5899-.393-.4164-.59-.9254-.59-1.5269v-14.3314c0-.6015.197-1.0988.59-1.4921.394-.4164.891-.6246 1.493-.6246.601 0 1.098.2082 1.492.6246.393.3933.59.8906.59 1.4921v3.2619l-.243-2.325c.254-.5552.578-1.041.971-1.4574.417-.4395.879-.7981 1.388-1.0757.509-.3008 1.053-.5205 1.631-.6593.579-.1388 1.157-.2082 1.735-.2082.694 0 1.273.1966 1.735.5899.486.3932.729.8559.729 1.388 0 .7634-.197 1.3186-.59 1.6656-.393.3239-.821.4858-1.284.4858-.439 0-.844-.0809-1.214-.2429-.347-.1619-.752-.2429-1.215-.2429-.416 0-.844.1041-1.284.3123-.416.1851-.809.4859-1.18.9023-.347.4164-.636.9369-.867 1.5615-.208.6015-.312 1.3186-.312 2.1514v8.2241c0 .6015-.197 1.1105-.59 1.5269-.394.3932-.891.5899-1.492.5899z"/><path d="m130.931 32.2092c.486 0 .937.1966 1.353.5899.417.4164.625.8906.625 1.4227s-.243 1.0295-.729 1.4922c-.463.4858-1.064.9137-1.804 1.2839-.741.3701-1.516.6593-2.325.8675-.787.2082-1.504.3123-2.152.3123-1.434 0-2.579-.1388-3.435-.4164-.856-.2545-1.562-.5552-2.117-.9022-.555-.3239-1.076-.6246-1.561-.9022-.486-.2545-1.076-.3817-1.77-.3817-.44 0-.798.0694-1.076.2082-.254.1619-.544.3123-.867.4511-.301.1619-.729.2429-1.284.2429-.579 0-1.064-.2198-1.458-.6593-.393-.4396-.59-.9138-.59-1.4228 0-.9022.405-1.5037 1.215-1.8044l7.183-2.672 3.123.7635-6.732 2.4984 1.978-1.1451c.81 0 1.515.1156 2.117.347.624.2545 1.214.5321 1.769.8328.556.3007 1.122.5668 1.701.7981.601.2545 1.284.3817 2.047.3817.625 0 1.145-.1041 1.562-.3123.439-.2082.821-.4395 1.145-.694.393-.3007.74-.5783 1.041-.8328.324-.2313.671-.347 1.041-.347zm-.139-13.1169c0 1.735-.289 3.3544-.867 4.8581-.579 1.5037-1.4 2.8339-2.464 3.9906-1.041 1.1335-2.29 2.0242-3.748 2.6719-1.434.6478-3.007.9717-4.719.9717s-3.285-.3239-4.72-.9717c-1.434-.6477-2.683-1.5384-3.747-2.6719-1.041-1.1567-1.851-2.4869-2.429-3.9906-.579-1.5037-.868-3.1231-.868-4.8581 0-1.7351.289-3.3544.868-4.8581.578-1.5037 1.388-2.8224 2.429-3.9559 1.064-1.1567 2.313-2.05892 3.747-2.70667 1.435-.64775 3.008-.97162 4.72-.97162s3.285.32387 4.719.97162c1.458.64775 2.707 1.54997 3.748 2.70667 1.064 1.1335 1.885 2.4522 2.464 3.9559.578 1.5037.867 3.123.867 4.8581zm-4.511 0c0-1.55-.312-2.9496-.937-4.1988-.625-1.2724-1.481-2.2787-2.568-3.019s-2.348-1.1104-3.782-1.1104c-1.435 0-2.695.3701-3.783 1.1104-1.087.7403-1.943 1.7351-2.567 2.9843-.602 1.2492-.903 2.6604-.903 4.2335 0 1.55.301 2.9611.903 4.2335.624 1.2492 1.48 2.244 2.567 2.9842 1.088.7403 2.348 1.1105 3.783 1.1105 1.434 0 2.695-.3702 3.782-1.1105 1.087-.7402 1.943-1.735 2.568-2.9842.625-1.2724.937-2.6835.937-4.2335z"/></g><path d="m8.8486 31.8457c4.0346-4.0609 10.5758-4.0609 14.6104 0l8.2183 8.272-8.2183 8.2719c-4.0346 4.0609-10.5758 4.0609-14.6104 0l-8.218351-8.2719z" fill="#7dd4d7"/><path d="m23.8772 40.1176c0-4.3078-3.4579-7.8-7.7235-7.8s-7.72352 3.4922-7.72352 7.8c0 4.3079 3.45792 7.8 7.72352 7.8s7.7235-3.4921 7.7235-7.8z" fill="#103c78"/><path d="m69.2486 31.8457c4.0346-4.0609 10.5758-4.0609 14.6104 0l8.2183 8.272-8.2183 8.2719c-4.0346 4.0609-10.5758 4.0609-14.6104 0l-8.2183-8.2719z" fill="#7dd4d7"/><path d="m84.6773 40.1176c0-4.3078-3.458-7.8-7.7235-7.8-4.2656 0-7.7236 3.4922-7.7236 7.8 0 4.3079 3.458 7.8 7.7236 7.8 4.2655 0 7.7235-3.4921 7.7235-7.8z" fill="#103c78"/><path clip-rule="evenodd" d="m58.4302 39.4c0 6.6729-5.4095 12.0823-12.0824 12.0823s-12.0823-5.4094-12.0823-12.0823h6.0411c0 3.3364 2.7048 6.0412 6.0412 6.0412 3.3365 0 6.0412-2.7048 6.0412-6.0412z" fill="#103c78" fill-rule="evenodd"/><path d="m25.2723 3h-11.6421c-1.7673 0-3.2 1.43269-3.2 3.2v11.84" stroke="#2a75a5" stroke-linecap="round" stroke-width="6"/><path d="m67.5881 75h11.6421c1.7673 0 3.2-1.4327 3.2-3.2v-11.84" stroke="#2a75a5" stroke-linecap="round" stroke-width="6"/><path d="m82.1143 18.36v-11.83998c0-1.76731-1.4327-3.2-3.2-3.2h-11.6421" stroke="#2a75a5" stroke-linecap="round" stroke-width="6"/><path d="m10.7461 59.96v11.84c0 1.7673 1.4327 3.2 3.2 3.2h11.6421" stroke="#2a75a5" stroke-linecap="round" stroke-width="6"/></svg>

<svg width="209" height="78" viewBox="0 0 209 78" fill="none" xmlns="http://www.w3.org/2000/svg">
    <path d="M206.863 45.0643C207.465 45.0643 207.962 45.261 208.355 45.6542C208.749 46.0475 208.945 46.5565 208.945 47.1811V68.6262C208.945 69.2276 208.749 69.7366 208.355 70.153C207.962 70.5463 207.465 70.7429 206.863 70.7429C206.262 70.7429 205.764 70.5463 205.371 70.153C204.978 69.7366 204.781 69.2276 204.781 68.6262V66.9258L205.545 67.2381C205.545 67.5389 205.383 67.909 205.059 68.3486C204.735 68.765 204.295 69.1814 203.74 69.5978C203.185 70.0142 202.526 70.3728 201.762 70.6735C201.022 70.9511 200.212 71.0899 199.333 71.0899C197.737 71.0899 196.291 70.6851 194.996 69.8754C193.7 69.0426 192.671 67.909 191.907 66.4747C191.167 65.0173 190.797 63.3516 190.797 61.4778C190.797 59.5808 191.167 57.9152 191.907 56.4809C192.671 55.0235 193.689 53.8899 194.961 53.0802C196.233 52.2474 197.644 51.831 199.194 51.831C200.189 51.831 201.103 51.9814 201.936 52.2821C202.769 52.5828 203.486 52.9645 204.087 53.4272C204.712 53.8899 205.186 54.3641 205.51 54.8499C205.857 55.3126 206.031 55.7059 206.031 56.0298L204.781 56.4809V47.1811C204.781 46.5796 204.978 46.0822 205.371 45.6889C205.764 45.2725 206.262 45.0643 206.863 45.0643ZM199.854 67.2728C200.872 67.2728 201.762 67.0184 202.526 66.5094C203.289 66.0005 203.879 65.3065 204.295 64.4274C204.735 63.5483 204.955 62.5651 204.955 61.4778C204.955 60.3674 204.735 59.3726 204.295 58.4935C203.879 57.6144 203.289 56.9204 202.526 56.4115C201.762 55.9025 200.872 55.6481 199.854 55.6481C198.859 55.6481 197.98 55.9025 197.217 56.4115C196.453 56.9204 195.852 57.6144 195.412 58.4935C194.996 59.3726 194.787 60.3674 194.787 61.4778C194.787 62.5651 194.996 63.5483 195.412 64.4274C195.852 65.3065 196.453 66.0005 197.217 66.5094C197.98 67.0184 198.859 67.2728 199.854 67.2728Z" fill="#103C78"/>
    <path d="M180.917 51.8309C182.629 51.8309 183.925 52.1895 184.804 52.9066C185.706 53.6238 186.319 54.5838 186.643 55.7868C186.99 56.9666 187.163 58.2852 187.163 59.7427V68.6261C187.163 69.2276 186.967 69.7365 186.573 70.1529C186.18 70.5462 185.683 70.7428 185.081 70.7428C184.48 70.7428 183.982 70.5462 183.589 70.1529C183.196 69.7365 182.999 69.2276 182.999 68.6261V59.7427C182.999 58.9793 182.895 58.2968 182.687 57.6953C182.502 57.0707 182.155 56.5733 181.646 56.2032C181.137 55.8331 180.408 55.648 179.46 55.648C178.534 55.648 177.748 55.8331 177.1 56.2032C176.476 56.5733 175.99 57.0707 175.643 57.6953C175.319 58.2968 175.157 58.9793 175.157 59.7427V68.6261C175.157 69.2276 174.96 69.7365 174.567 70.1529C174.174 70.5462 173.676 70.7428 173.075 70.7428C172.473 70.7428 171.976 70.5462 171.583 70.1529C171.189 69.7365 170.993 69.2276 170.993 68.6261V54.2947C170.993 53.6932 171.189 53.1958 171.583 52.8025C171.976 52.3861 172.473 52.1779 173.075 52.1779C173.676 52.1779 174.174 52.3861 174.567 52.8025C174.96 53.1958 175.157 53.6932 175.157 54.2947V55.7868L174.636 55.6827C174.845 55.2894 175.145 54.873 175.539 54.4335C175.932 53.9708 176.395 53.5428 176.927 53.1495C177.459 52.7563 178.06 52.4439 178.731 52.2126C179.402 51.9581 180.131 51.8309 180.917 51.8309Z" fill="#103C78"/>
    <path d="M159.269 71.0898C157.303 71.0898 155.591 70.685 154.134 69.8753C152.699 69.0425 151.589 67.9205 150.802 66.5093C150.039 65.0982 149.657 63.5019 149.657 61.7206C149.657 59.6386 150.074 57.8688 150.907 56.4114C151.763 54.9308 152.873 53.7973 154.238 53.0107C155.603 52.2242 157.049 51.8309 158.575 51.8309C159.755 51.8309 160.866 52.0738 161.907 52.5596C162.971 53.0454 163.908 53.7163 164.717 54.5723C165.527 55.4051 166.163 56.3767 166.626 57.4871C167.112 58.5976 167.355 59.7774 167.355 61.0266C167.332 61.5818 167.112 62.0329 166.695 62.3799C166.279 62.7269 165.793 62.9005 165.238 62.9005H151.982L150.941 59.4304H163.676L162.913 60.1244V59.1875C162.867 58.5166 162.624 57.9151 162.184 57.383C161.768 56.851 161.236 56.4345 160.588 56.1338C159.963 55.8099 159.293 55.648 158.575 55.648C157.881 55.648 157.234 55.7405 156.632 55.9256C156.031 56.1107 155.51 56.423 155.071 56.8625C154.631 57.3021 154.284 57.892 154.03 58.6323C153.775 59.3725 153.648 60.3095 153.648 61.443C153.648 62.6922 153.902 63.7564 154.411 64.6355C154.943 65.4914 155.614 66.1508 156.424 66.6134C157.257 67.053 158.136 67.2727 159.061 67.2727C159.917 67.2727 160.6 67.2033 161.109 67.0645C161.618 66.9257 162.022 66.7638 162.323 66.5787C162.647 66.3705 162.936 66.197 163.191 66.0582C163.607 65.85 164 65.7459 164.37 65.7459C164.879 65.7459 165.296 65.9194 165.62 66.2664C165.967 66.6134 166.14 67.0183 166.14 67.481C166.14 68.1056 165.816 68.6723 165.169 69.1813C164.567 69.6902 163.723 70.1413 162.635 70.5346C161.548 70.9048 160.426 71.0898 159.269 71.0898Z" fill="#103C78"/>
    <path d="M146.245 68.6261C146.245 69.2276 146.049 69.7365 145.655 70.1529C145.262 70.5462 144.765 70.7428 144.163 70.7428C143.562 70.7428 143.064 70.5462 142.671 70.1529C142.278 69.7365 142.081 69.2276 142.081 68.6261V54.2947C142.081 53.6932 142.278 53.1958 142.671 52.8025C143.064 52.3861 143.562 52.1779 144.163 52.1779C144.765 52.1779 145.262 52.3861 145.655 52.8025C146.049 53.1958 146.245 53.6932 146.245 54.2947V68.6261ZM144.129 49.9224C143.342 49.9224 142.787 49.7951 142.463 49.5407C142.139 49.2862 141.977 48.8351 141.977 48.1873V47.528C141.977 46.8571 142.151 46.406 142.498 46.1747C142.868 45.9202 143.423 45.793 144.163 45.793C144.973 45.793 145.54 45.9202 145.864 46.1747C146.187 46.4291 146.349 46.8803 146.349 47.528V48.1873C146.349 48.8582 146.176 49.3209 145.829 49.5754C145.482 49.8067 144.915 49.9224 144.129 49.9224Z" fill="#103C78"/>
    <path d="M129.36 70.7428C128.758 70.7428 128.261 70.5462 127.868 70.1529C127.474 69.7365 127.278 69.2276 127.278 68.6261V54.2947C127.278 53.6932 127.474 53.1958 127.868 52.8025C128.261 52.3861 128.758 52.1779 129.36 52.1779C129.961 52.1779 130.459 52.3861 130.852 52.8025C131.245 53.1958 131.442 53.6932 131.442 54.2947V57.5565L131.199 55.2316C131.453 54.6764 131.777 54.1906 132.171 53.7741C132.587 53.3346 133.05 52.976 133.559 52.6984C134.068 52.3977 134.611 52.1779 135.19 52.0391C135.768 51.9003 136.346 51.8309 136.925 51.8309C137.619 51.8309 138.197 52.0275 138.66 52.4208C139.145 52.8141 139.388 53.2768 139.388 53.8088C139.388 54.5723 139.192 55.1275 138.798 55.4745C138.405 55.7984 137.977 55.9603 137.515 55.9603C137.075 55.9603 136.67 55.8793 136.3 55.7174C135.953 55.5554 135.548 55.4745 135.086 55.4745C134.669 55.4745 134.241 55.5786 133.802 55.7868C133.385 55.9719 132.992 56.2726 132.622 56.689C132.275 57.1054 131.986 57.6259 131.754 58.2505C131.546 58.852 131.442 59.5692 131.442 60.402V68.6261C131.442 69.2276 131.245 69.7365 130.852 70.1529C130.459 70.5462 129.961 70.7428 129.36 70.7428Z" fill="#103C78"/>
    <path d="M110.631 70.7428C109.983 70.7428 109.451 70.5462 109.035 70.1529C108.641 69.7365 108.445 69.2276 108.445 68.6261V48.569C108.445 47.9676 108.641 47.4702 109.035 47.0769C109.451 46.6605 109.96 46.4523 110.562 46.4523H121.839C122.441 46.4523 122.938 46.6489 123.331 47.0422C123.748 47.4123 123.956 47.8981 123.956 48.4996C123.956 49.0086 123.748 49.4597 123.331 49.853C122.938 50.2462 122.441 50.4429 121.839 50.4429H112.47L112.782 50.0265V57.0013L112.54 56.5502H120.278C120.879 56.5502 121.377 56.7468 121.77 57.1401C122.186 57.5103 122.395 57.9961 122.395 58.5976C122.395 59.1065 122.186 59.5576 121.77 59.9509C121.377 60.3442 120.879 60.5408 120.278 60.5408H112.47L112.782 60.2285V68.6261C112.782 69.2276 112.563 69.7365 112.123 70.1529C111.707 70.5462 111.209 70.7428 110.631 70.7428Z" fill="#103C78"/>
    <path d="M136.375 31.2376C135.773 31.2376 135.276 31.0409 134.882 30.6477C134.489 30.2313 134.292 29.7223 134.292 29.1208V14.7894C134.292 14.1879 134.489 13.6906 134.882 13.2973C135.276 12.8809 135.773 12.6727 136.375 12.6727C136.976 12.6727 137.473 12.8809 137.867 13.2973C138.26 13.6906 138.457 14.1879 138.457 14.7894V18.0513L138.214 15.7263C138.468 15.1711 138.792 14.6853 139.185 14.2689C139.602 13.8294 140.064 13.4708 140.573 13.1932C141.082 12.8924 141.626 12.6727 142.204 12.5339C142.783 12.3951 143.361 12.3257 143.939 12.3257C144.633 12.3257 145.212 12.5223 145.674 12.9156C146.16 13.3088 146.403 13.7715 146.403 14.3036C146.403 15.067 146.206 15.6222 145.813 15.9692C145.42 16.2931 144.992 16.455 144.529 16.455C144.09 16.455 143.685 16.3741 143.315 16.2121C142.968 16.0502 142.563 15.9692 142.1 15.9692C141.684 15.9692 141.256 16.0733 140.816 16.2815C140.4 16.4666 140.007 16.7674 139.636 17.1838C139.289 17.6002 139 18.1207 138.769 18.7453C138.561 19.3468 138.457 20.0639 138.457 20.8967V29.1208C138.457 29.7223 138.26 30.2313 137.867 30.6477C137.473 31.0409 136.976 31.2376 136.375 31.2376Z" fill="#103C78"/>
    <path d="M130.931 32.2092C131.417 32.2092 131.868 32.4058 132.284 32.7991C132.701 33.2155 132.909 33.6897 132.909 34.2218C132.909 34.7539 132.666 35.2513 132.18 35.714C131.717 36.1998 131.116 36.6277 130.376 36.9979C129.635 37.368 128.86 37.6572 128.051 37.8654C127.264 38.0736 126.547 38.1777 125.899 38.1777C124.465 38.1777 123.32 38.0389 122.464 37.7613C121.608 37.5068 120.902 37.2061 120.347 36.8591C119.792 36.5352 119.271 36.2345 118.786 35.9569C118.3 35.7024 117.71 35.5752 117.016 35.5752C116.576 35.5752 116.218 35.6446 115.94 35.7834C115.686 35.9453 115.396 36.0957 115.073 36.2345C114.772 36.3964 114.344 36.4774 113.789 36.4774C113.21 36.4774 112.725 36.2576 112.331 35.8181C111.938 35.3785 111.741 34.9043 111.741 34.3953C111.741 33.4931 112.146 32.8916 112.956 32.5909L120.139 29.9189L123.262 30.6824L116.53 33.1808L118.508 32.0357C119.318 32.0357 120.023 32.1513 120.625 32.3827C121.249 32.6372 121.839 32.9148 122.394 33.2155C122.95 33.5162 123.516 33.7823 124.095 34.0136C124.696 34.2681 125.379 34.3953 126.142 34.3953C126.767 34.3953 127.287 34.2912 127.704 34.083C128.143 33.8748 128.525 33.6435 128.849 33.389C129.242 33.0883 129.589 32.8107 129.89 32.5562C130.214 32.3249 130.561 32.2092 130.931 32.2092ZM130.792 19.0923C130.792 20.8273 130.503 22.4467 129.925 23.9504C129.346 25.4541 128.525 26.7843 127.461 27.941C126.42 29.0745 125.171 29.9652 123.713 30.6129C122.279 31.2607 120.706 31.5846 118.994 31.5846C117.282 31.5846 115.709 31.2607 114.274 30.6129C112.84 29.9652 111.591 29.0745 110.527 27.941C109.486 26.7843 108.676 25.4541 108.098 23.9504C107.519 22.4467 107.23 20.8273 107.23 19.0923C107.23 17.3572 107.519 15.7379 108.098 14.2342C108.676 12.7305 109.486 11.4118 110.527 10.2783C111.591 9.1216 112.84 8.21938 114.274 7.57163C115.709 6.92388 117.282 6.60001 118.994 6.60001C120.706 6.60001 122.279 6.92388 123.713 7.57163C125.171 8.21938 126.42 9.1216 127.461 10.2783C128.525 11.4118 129.346 12.7305 129.925 14.2342C130.503 15.7379 130.792 17.3572 130.792 19.0923ZM126.281 19.0923C126.281 17.5423 125.969 16.1427 125.344 14.8935C124.719 13.6211 123.863 12.6148 122.776 11.8745C121.689 11.1342 120.428 10.7641 118.994 10.7641C117.559 10.7641 116.299 11.1342 115.211 11.8745C114.124 12.6148 113.268 13.6096 112.644 14.8588C112.042 16.108 111.741 17.5192 111.741 19.0923C111.741 20.6423 112.042 22.0534 112.644 23.3258C113.268 24.575 114.124 25.5698 115.211 26.31C116.299 27.0503 117.559 27.4205 118.994 27.4205C120.428 27.4205 121.689 27.0503 122.776 26.31C123.863 25.5698 124.719 24.575 125.344 23.3258C125.969 22.0534 126.281 20.6423 126.281 19.0923Z" fill="#103C78"/>
    <path d="M8.8486 31.8457C12.8832 27.7848 19.4244 27.7848 23.459 31.8457L31.6773 40.1177L23.459 48.3896C19.4244 52.4505 12.8832 52.4505 8.8486 48.3896L0.630249 40.1177L8.8486 31.8457Z" fill="#7DD4D7"/>
    <path d="M23.8772 40.1176C23.8772 35.8098 20.4193 32.3176 16.1537 32.3176C11.8881 32.3176 8.43018 35.8098 8.43018 40.1176C8.43018 44.4255 11.8881 47.9176 16.1537 47.9176C20.4193 47.9176 23.8772 44.4255 23.8772 40.1176Z" fill="#103C78"/>
    <path d="M69.2486 31.8457C73.2832 27.7848 79.8244 27.7848 83.859 31.8457L92.0773 40.1177L83.859 48.3896C79.8244 52.4505 73.2832 52.4505 69.2486 48.3896L61.0303 40.1177L69.2486 31.8457Z" fill="#7DD4D7"/>
    <path d="M84.6773 40.1176C84.6773 35.8098 81.2193 32.3176 76.9538 32.3176C72.6882 32.3176 69.2302 35.8098 69.2302 40.1176C69.2302 44.4255 72.6882 47.9176 76.9538 47.9176C81.2193 47.9176 84.6773 44.4255 84.6773 40.1176Z" fill="#103C78"/>
    <path fill-rule="evenodd" clip-rule="evenodd" d="M58.4302 39.4C58.4302 46.0729 53.0207 51.4823 46.3478 51.4823C39.6749 51.4823 34.2655 46.0729 34.2655 39.4H40.3066C40.3066 42.7364 43.0114 45.4412 46.3478 45.4412C49.6843 45.4412 52.389 42.7364 52.389 39.4H58.4302Z" fill="#103C78"/>
    <path d="M25.2723 3H13.6302C11.8629 3 10.4302 4.43269 10.4302 6.2V18.04" stroke="#2A75A5" stroke-width="6" stroke-linecap="round"/>
    <path d="M67.5881 75L79.2302 75C80.9975 75 82.4302 73.5673 82.4302 71.8L82.4302 59.96" stroke="#2A75A5" stroke-width="6" stroke-linecap="round"/>
    <path d="M82.1143 18.36L82.1143 6.52002C82.1143 4.75271 80.6816 3.32002 78.9143 3.32002L67.2722 3.32002" stroke="#2A75A5" stroke-width="6" stroke-linecap="round"/>
    <path d="M10.7461 59.96L10.7461 71.8C10.7461 73.5673 12.1788 75 13.9461 75L25.5882 75" stroke="#2A75A5" stroke-width="6" stroke-linecap="round"/>
</svg>
